X:9
T:Gentle Blues
C:Nate Bray
N:TablEdited by Mike Stangeland
L:1/8
Q:1/4=120
M:4/4
K:E
z8 | "E "z[=ge] [ge][ge] "E7"ge zg | "A"e=d cB "A7"F=G BE | "E "z2 {F}(3=GEE {F}(3"Gm7"GGE {F}GE | 
{F}"F#m7"=GE B,=D "E7"z4 | "A"z2 (3=cA=G (3E=CA, ^C2 | "Am7"z2 (3e=de (3ded (3edB | 
(3"E "=GEG EC "F#m7"zE ^GB | "G#m7"e=d BA "Gm7"z=G z2 | "F#m7"BA z=G zE3 | (3"A7"=dcB (3=GFE (3FG^G (3BcB | 
(3"E "=dcB E2 "Gm7"=GF z2 | "F#7"{=F}^FF FB, "B7"z4 | z8 | z8 | z8 | 


